X: 1
T: God Is So Good
M: 4/4
L: 1/4
C: Traditional
%%staves (1 2) (3 4)
K: Eb
V: 1
 E2 E G | F4 | F2 F A | G4 |
 G2 G B | A2 F A | G2 F2 | E4 |]
V: 2
 B,2 B, E | D4 | D2 D D | E4 |
 E2 E _D | C2 E E | E2 D2 | B,4 |]
V: 3
 G,2 G, B, | B,4 | B,2 B, B, | B,4 |
 B,2 B, G, | A,2 A, A, | B,2 A,2 | G,4 |]
V: 4
 E,2 E, E, | B,,4 | B,,2 B,, B,, | E,4 |
 E,2 E, E, | A,,2 C, =B,, | B,,2 B,,2 | E,4 |]
